packages/tokens/icons/moonAndStars/size16Px.svg

<svg viewBox="0 0 16 16" fill="none" xmlns="http://www.w3.org/2000/svg" width="1em" height="1em"><path d="M3.13522 10.7166C4.57868 13.2167 8.33855 14.8314 11.1352 13.2167C11.474 13.0211 11.926 12.713 12.309 12.4019C12.4954 12.2505 12.3557 11.9768 12.1162 11.9932C9.80877 12.1517 7.15375 10.9984 6.00006 9.00012C5.02209 7.30623 5.20998 4.18227 6.47339 2.21222C6.60299 2.01012 6.4328 1.74981 6.20853 1.83551C5.7476 2.01165 5.25472 2.24903 4.91594 2.44463C2.11927 4.05928 1.63522 8.11851 3.13522 10.7166Z" stroke="currentColor" stroke-linejoin="round"/><path d="M10.5 7.5V8.5M11.5 6.5H12.5M8.5 6.5H9.5M10.5 4.5V5.5" stroke="currentColor" stroke-linecap="round"/></svg>

<svg xmlns="http://www.w3.org/2000/svg" fill="none" viewBox="0 0 16 16" width="1em" height="1em"><path stroke="currentColor" stroke-linejoin="round" d="M3.135 10.717c1.444 2.5 5.204 4.114 8 2.5a9.799 9.799 0 0 0 1.174-.815c.186-.151.047-.425-.193-.409C9.81 12.152 7.154 10.998 6 9c-.978-1.694-.79-4.818.473-6.788.13-.202-.04-.462-.264-.376a9.702 9.702 0 0 0-1.293.609c-2.797 1.614-3.28 5.674-1.78 8.272Z"/><path stroke="currentColor" stroke-linecap="round" d="M10.5 7.5v1m1-2h1m-4 0h1m1-2v1"/></svg>
